svg/food/cookie_line.svg

<?xml version="1.0" encoding="UTF-8"?>
<svg width="24px" height="24px" viewBox="0 0 24 24" version="1.1" xmlns="http://www.w3.org/2000/svg" xmlns:xlink="http://www.w3.org/1999/xlink">
    <title>cookie_line</title>
    <g id="Icon" stroke="none" stroke-width="1" fill="none" fill-rule="evenodd">
        <g id="Food" transform="translate(-672.000000, 0.000000)" fill-rule="nonzero">
            <g id="cookie_line" transform="translate(672.000000, 0.000000)">
                <path d="M24,0 L24,24 L0,24 L0,0 L24,0 Z M12.5935,23.2578 L12.5819,23.2595 L12.5109,23.295 L12.4919,23.2987 L12.4767,23.295 L12.4057,23.2595 C12.3958,23.2564 12.387,23.259 12.3821,23.2649 L12.378,23.2758 L12.3609,23.7031 L12.3659,23.7235 L12.3769,23.7357 L12.4805,23.8097 L12.4953,23.8136 L12.5071,23.8097 L12.6107,23.7357 L12.6233,23.7197 L12.6267,23.7031 L12.6096,23.2758 C12.6076,23.2657 12.601,23.2593 12.5935,23.2578 Z M12.8584,23.1453 L12.8445,23.1473 L12.6598,23.2397 L12.6499,23.2499 L12.6472,23.2611 L12.6651,23.6906 L12.6699,23.7034 L12.6784,23.7105 L12.8793,23.8032 C12.8914,23.8069 12.9022,23.803 12.9078,23.7952 L12.9118,23.7812 L12.8777,23.1665 C12.8753,23.1546 12.8674,23.147 12.8584,23.1453 Z M12.143,23.1473 C12.1332,23.1424 12.1222,23.1453 12.1156,23.1526 L12.1099,23.1665 L12.0758,23.7812 C12.0751,23.7927 12.0828,23.8019 12.0926,23.8046 L12.1083,23.8032 L12.3092,23.7105 L12.3186,23.7024 L12.3225,23.6906 L12.3404,23.2611 L12.3372,23.2485 L12.3278,23.2397 L12.143,23.1473 Z" id="MingCute"></path>
                <path d="M12,2 C12.6322,2 13.2042,2.20106 13.5926,2.72962 C13.8278,3.04977143 13.9591143,3.43236449 13.9918327,3.81120117 L14,4 C14,5.10457 14.8954,6 16,6 C16.1308,6 16.2579556,5.98757333 16.3805778,5.9640237 L16.561,5.92052 C17.2786,5.71142 18,6.2505 18,7 C18,8.05436227 18.81585,8.91816517 19.8507339,8.99451427 L20,9 C20.6956,9 21.7249,9.41233 21.8888,10.5045 C21.9621,10.9929 22,11.4923 22,12 C22,17.5228 17.5228,22 12,22 C6.47715,22 2,17.5228 2,12 C2,6.47715 6.47715,2 12,2 Z M12,4 C7.58172,4 4,7.58172 4,12 C4,16.4183 7.58172,20 12,20 C16.4183,20 20,16.4183 20,12 C20,11.6608 19.9789,11.3269 19.9382,10.9995 C18.1009,10.9717 16.564,9.70515 16.1255,7.99806 C13.8996,8.06698 12,6.22873 12,4 Z M9.5,14 C10.3284,14 11,14.6716 11,15.5 C11,16.3284 10.3284,17 9.5,17 C8.67157,17 8,16.3284 8,15.5 C8,14.6716 8.67157,14 9.5,14 Z M15.5,12 C16.3284,12 17,12.6716 17,13.5 C17,14.3284 16.3284,15 15.5,15 C14.6716,15 14,14.3284 14,13.5 C14,12.6716 14.6716,12 15.5,12 Z M9.5,8 C10.3284,8 11,8.67157 11,9.5 C11,10.3284 10.3284,11 9.5,11 C8.67157,11 8,10.3284 8,9.5 C8,8.67157 8.67157,8 9.5,8 Z" id="形状" fill="#09244B"></path>
            </g>
        </g>
    </g>
</svg>

<svg xmlns="http://www.w3.org/2000/svg" width="24" height="24"><g fill="none" fill-rule="nonzero"><path d="M24 0v24H0V0h24ZM12.594 23.258l-.012.002-.071.035-.02.004-.014-.004-.071-.036c-.01-.003-.019 0-.024.006l-.004.01-.017.428.005.02.01.013.104.074.015.004.012-.004.104-.074.012-.016.004-.017-.017-.427c-.002-.01-.009-.017-.016-.018Zm.264-.113-.014.002-.184.093-.01.01-.003.011.018.43.005.012.008.008.201.092c.012.004.023 0 .029-.008l.004-.014-.034-.614c-.003-.012-.01-.02-.02-.022Zm-.715.002a.023.023 0 0 0-.027.006l-.006.014-.034.614c0 .012.007.02.017.024l.015-.002.201-.093.01-.008.003-.011.018-.43-.003-.012-.01-.01-.184-.092Z"/><path fill="#09244B" d="M12 2c.632 0 1.204.201 1.593.73.235.32.366.702.399 1.081L14 4a2 2 0 0 0 2.38 1.964l.181-.043C17.279 5.71 18 6.25 18 7a2 2 0 0 0 1.85 1.995L20 9c.696 0 1.725.412 1.889 1.505.073.488.111.987.111 1.495 0 5.523-4.477 10-10 10S2 17.523 2 12 6.477 2 12 2Zm0 2a8 8 0 1 0 7.938 7 4.002 4.002 0 0 1-3.812-3.002C13.9 8.067 12 6.228 12 4ZM9.5 14a1.5 1.5 0 1 1 0 3 1.5 1.5 0 0 1 0-3Zm6-2a1.5 1.5 0 1 1 0 3 1.5 1.5 0 0 1 0-3Zm-6-4a1.5 1.5 0 1 1 0 3 1.5 1.5 0 0 1 0-3Z"/></g></svg>
